X: 22101
T: Knotted Cord, The
R: reel
M: 4/4
K: Adorian
|:A3B AE E2|A2 (3Bcd edBA|G3A GEDE|G2 BG dGBG|
A3B AE E2|A2 (3Bcd edBA|GABe gfge|dBGA BA A2:|
|:ea a2 ea a2|eaab aged|eg g2 eg g2|gfga ge d2|
ea a2 ea a2|eaab aged|BABd gfge|dBGA BA A2:|

